X:1
T:City of the Blest
T:City of the Blest
T:William. J. Holtzclaw
T:William. J. Holtzclaw, 1895
T:Public Domain Courtesy of the Cyber Hymnal™
T:Public Domain Courtesy of the Cyber Hymnal™
C:William. J. Holtzclaw
Z:Public Domain
Z:Courtesy of the Cyber Hymnal™
%%score ( 1 2 ) ( 3 4 )
L:1/8
Q:1/4=96
M:4/4
K:A
V:1 treble 
V:2 treble 
V:3 bass 
V:4 bass 
V:1
 [CE][CE] | [CA]2 [CA]>[DB] [Ec]2 [Ec][DB] | [CA]2 [DA]>[DF] [FA]2 [EA][EA] | [EB]2 [EB]>[Ec] | %4
w: 1.~There’s a|ci- ty on high, where the|saints are at rest, Not a|sor- row or|
w: 2.~’Tis a|ci- ty of light, with its|build- ings so fair, Ma- ny|friends that I|
w: 3.~Let us|walk in the steps of the|Mas- ter so dear, For the|home is in|
 [Ed]2 [Ec][DB] [CA]2 [^DA]>[Dc] !fermata![EB]2 [CE][CE] | [CA]2 [CA]>[EB] [Ec]2 [Ec][DB] | %6
w: care ev- er trou- bles the blest; ’Tis the|home of the soul, ’tis the|
w: knew are now rest- ing up there; I shall|see them, for they are now|
w: sight, and the meet- ing is near; I shall|then be at rest, and from|
 [CA]2 [DA]>[DF] [CA]4 | [Ec][DB][CA]E [DF]2 [Fd]>[Fd] | [Ec]2 [CA]>[DB] [CA]4 || %9
w: land of the free,|Ci- ty of the blest, let my|soul rest in thee.|
w: wait- ing for me.|Ci- ty of the blest, let my|soul rest in thee.|
w: sin I’ll be free,|Ci- ty of the blest, let my|soul rest in thee.|
"^Refrain" [EB][EB] [EB]>[Ec] [EB]4 | [Ec][Ec] [Ec]>[Fd] [Ec]4 | [Ec][DB][CA]E [DF]2 [Fd]>[Fd] | %12
w: |||
w: Ci- ty of the blest,|ci- ty of the blest,|Ci- ty of the blest, let my|
w: |||
 [Ec]2 [CA]>[EB] [Ec]4 | [EB][EB] [EB]>[Ec] [EB]4 | [Ec][Ec] [Ec]>[Fd] [Ec]4 | %15
w: |||
w: soul rest in thee;|Ci- ty of the blest,|ci- ty of the blest,|
w: |||
 [Ec][DB][CA]E [DF]2 [Fd]>[Fd] | [Ec]2 [CA]>[DB] [CA]4 |] %17
w: ||
w: Ci- ty of the blest, let my|soul rest in thee.|
w: ||
V:2
 x2 | x8 | x8 | x4 | x12 | x8 | x8 | x3 E x4 | x8 || x8 | x8 | x3 E x4 | x8 | x8 | x8 | x3 E x4 | %16
 x8 |] %17
V:3
 [A,,A,][A,,A,] | [A,,A,]2 [A,,A,]>[E,G,] A,2 [E,A,][E,G,] | %2
 [A,,A,]2 [A,,F,]>[A,,A,] [A,,A,]2 [C,A,][C,A,] | [E,G,]2 [E,G,]>[E,A,] | %4
 [E,B,]2 [E,A,][E,G,] [F,A,]2 [B,,B,]>[B,,A,] !fermata![E,G,]2 [A,,A,][A,,A,] | %5
 [A,,A,]2 [A,,A,]>[E,G,] A,2 [E,A,][E,G,] | [A,,A,]2 [A,,F,]>[A,,A,] [A,,A,]4 | %7
 A,A,A,[C,A,] [D,A,]2 [D,A,]>[D,A,] | [E,A,]2 [E,A,]>[E,G,] [A,,A,]4 || %9
 [E,G,][E,G,] [E,G,]>[E,A,] [E,G,]4 | [A,,A,][A,,A,] [A,,A,]>[A,,A,] [A,,A,]4 | %11
 A,A,A,[C,A,] [D,A,]2 [D,A,]>[D,A,] | [E,A,]2 [E,A,]>[E,G,] A,4 | %13
 [E,G,][E,G,] [E,G,]>[E,A,] [E,G,]4 | [A,,A,][A,,A,] [A,,A,]>[A,,A,] [A,,A,]4 | %15
 A,A,A,[C,A,] [D,A,]2 [D,A,]>[D,A,] | [E,A,]2 [E,A,]>[E,G,] [A,,A,]4 |] %17
V:4
 x2 | x4 A,2 x2 | x8 | x4 | x12 | x4 A,2 x2 | x8 | A,A,A, x5 | x8 || x8 | x8 | A,A,A, x5 | x4 A,4 | %13
 x8 | x8 | A,A,A, x5 | x8 |] %17

